X:18950
T:Xiraldilla (CT 021)
R:Xiraldilla
C:Tradicional
S:Música Tradicional Asturiana, (C) Tello & Tito. Asturies, 2001.
S:http://pagina.de/MusTradAst <telloytito@asturies.org>
N:Estribillo, dictado por José Ramón González de treinta y siete años, de Col.lanzo, ayuntamiento de Ayer.
N:Sirve como baile en las xiraldillas y se aplica a cualquier melodía propia para la rueda.
O:Col.lanzo (Ayer)
A:Asturies
Z:Cancioneru de Torner 021
M:2/4
L:1/8
Q:1/4=152
W:Por el aire van
W:los suspiros de mio amante;
W:por el aire van,
W:van por el aire.
K:C
BB Bc|d2 cB|cc BA|B2 G2|
BB Bc|(d3B)|c2 BA|G2 G2||


